X:1
T:Waltz Op.39 No.15
T:Op.39 No.15
T:Waltz
T:Johannes Brahms
T:Public Domain
C:Johannes Brahms
Z:Public Domain
%%score { ( 1 3 ) | 2 }
L:1/8
M:3/4
K:Ab
V:1 treble nm="Piano"
V:3 treble 
V:2 bass 
V:1
!p! ([Ec]3 [CA])([CA][Ec]) | ([Ec]3!<(! [CA])([CA][Ec])!<)! | %2
!>(! ([FAd]2!>)!{ed)} (.[EAc]2 .[DAB]2) | ([EAc]3 A)(A[ce]) | ([Acf]3 [Ac])([Ac]e) | %5
!<(! ([Acf]3!<)!!<(! [Ac])([Ac]e)!<)! |!>(! (gf) (.e2!>)! .=d2) |1 [Gce]3 [EG] ([EG]c) :|2 %8
 [Gce]3 [EGc] ([EGc]e) || ([EGB_de]3 [EGB])([EGB][de]) | ([EAce]3 [Ac])([Ac]e) | %11
!<(! ([Ace_ga]3 [Ace])([Ace][ga]) | ([Adfa]3 [Adf])([Adf]a)!<)! | ([AB=dfb]3 [Bdf])([Bdf]!>(!a) | %14
 (ag) (.f2!>)! .e2) |!p! ([Ec]3 [CA])([CA][Ec]) | ([Ec]3 [CA])([CA][Ec]) | %17
 ([FAd]2{ed)} (.[EAc]2 .[DAB]2) | ([EAc]3 A)(A[ce]) |!<(!!>(! ([Acf]3!<)!!>)! [Ac])([Ac]e) | %20
!<(!!>(! ([Acf]3!<)!!>)!!<(! [Ac])([Ac]!<)!e) |!>(! (ae)!>)! (.d2 .B2) | A2 z!p! [EAc]([EAc]e) | %23
 ([EGBde]3 [EGB])([EGB][de]) | ([EAce]3 [Ac])([Ac]e) | ([Ace_ga]3!<(! [Ace])([Ace][ga]) | %26
 ([Adfa]3 [Adf])([Adf]a)!<)! | ([AB=dfb]3 [Bdf])([Bdf]a) | (ag) (.f2 .e2) | %29
 [ec']2 (3z ([CA][Ec](3[ca][ec'][ca]) | [ec']2 (3z ([CA][Ec](3[ca][ec'][ca]) | %31
 ([fad']2{e'd')} (.[eac']2 .[dab]2) | [eac']2 (3z ([CA][Ec]!<(!(3[ca][ec']!<)!([fc']-) | %33
!>(! [fac'f']2)!>)! (3z ([CA][Ec]!<(!(3[ca][ec']([fc']-)!<)! | %34
!>(! [fac'f']2)!>)! (3z ([CA][Ec]!<(!(3[ca][ec'][ac']-)!<)! |!>(! [ac']2!>)! [dg]2 [Bd]2 | %36
 [Aca]2 z2 |] %37
V:2
 .A,,2"^dolce" !arpeggio!.[E,A,C]2 !arpeggio!.[C,E,A,]2 | %1
 .A,,,2 !arpeggio!.[E,A,C]2 !arpeggio!.[C,E,A,]2 | .A,,2 !arpeggio!.[D,F,D]2 .[F,A,]2 | %3
 .A,,,2 !arpeggio!.[E,A,C]2 !arpeggio!.[C,E,A,]2 | %4
!<(! F,,2!<)!!>(! !arpeggio![F,A,CF]2!>)! !arpeggio![A,,E,C]2 | %5
!>(! F,,2!>)! !arpeggio![F,A,CF]2 !arpeggio![A,,E,C]2 | E,,2 [E,G,C]2 !arpeggio![G,,F,=B,]2 |1 %7
 C,,2 [E,G,C]2 [C,E,]2 :|2 C,,2 [E,G,C]2 [C,E,G,]2 ||"^poco cresc." E,,2 [E,G,_D]2 [E,G,]2 | %10
 A,,2 [E,A,C]2 [E,A,]2 | A,,,2 [A,C_G]2 [A,C]2 | D,,2 [A,DF]2 [A,D]2 | %13
 [B,,,B,,]2 [A,B,=DF]2 [F,B,D]2 | E,,2 [E,B,_D]2 [E,B,E]2 | %15
 A,,2 !arpeggio![E,A,C]2 !arpeggio![C,E,A,]2 | A,,,2 !arpeggio![E,A,C]2 !arpeggio![C,E,A,]2 | %17
 A,,2 !arpeggio![D,F,D]2 [F,A,]2 | A,,,2 !arpeggio![E,A,C]2 !arpeggio![C,E,A,]2 | %19
 F,,2 !arpeggio![F,A,CF]2 !arpeggio![A,,E,C]2 | F,,2 !arpeggio![F,A,CF]2 !arpeggio![A,,E,C]2 | %21
 !5!C,,2 !5!E,,2 [E,G,]2 | A,,2 [E,A,]2 [E,A,C]2 | E,,2 [E,G,D]2"^poco cresc." [E,G,]2 | %24
 A,,2 [E,A,C]2 [E,A,]2 | A,,,2 [A,C_G]2 [A,C]2 | D,,2 [A,DF]2 [A,D]2 | %27
 [B,,,B,,]2!>(! [A,B,=DF]2 [F,B,D]2 | E,,2 [E,B,_D]2 [E,B,E]2!>)! | %29
"^dolce" .A,,,2 .[E,A,C]2 .[C,E,A,]2 | .A,,,2 .[E,A,C]2 .[C,E,A,]2 | .D,,2 .[D,A,]2 .[F,A,]2 | %32
 A,,,2 [E,A,C]2 [C,E,A,]2 | .F,,2 !arpeggio!.[F,A,C]2 !arpeggio!.[A,,E,A,]2 | %34
 F,,2 !arpeggio![F,A,C]2 !arpeggio![A,,E,A,]2 | C,,2 E,,2 [E,G,D]2 | A,,,2 [E,A,C]2 |] %37
V:3
 x6 | x6 | x6 | x6 | x6 | x6 | [Gc]2 [Gc]2 [F=B]2 |1 x6 :|2 x6 || x6 | x6 | x6 | x6 | x6 | %14
 [B_d]2 [Ad]2 [Gd]2 | x6 | x6 | x6 | x6 | x6 | x6 | A2 G2 [DE]2 | [CE]2 x4 | x6 | x6 | x6 | x6 | %27
 x6 | [B_d]2 [Ad]2 [Gd]2 | x6 | x6 | x6 | x6 | x6 | x6 | a'e' (.d'2 .b2) | x4 |] %37

